X: 17
T: Earl's Chair, The
C: Pakie Moloney
Z: chansherly212
S: https://thesession.org/tunes/221#setting53936
R: reel
M: 4/4
L: 1/8
K: Dmaj
A|:"Bm"B2 dB BAFA|"Bm"B2 dB BAFB|"D"AFFF DFFF|"D"AFdB ADFA|
"Bm"B2dB BAFA|"Bm"B2 dB BAFB|"D"AFAB d3f|1 "D"edef d3c:|2 "D"edef d2(3Bcd||
|:"A"~e3 f "D"d3f|"A"e3f "D"dBAB|"A"edef "D"dcde|"G"fedB ADFA|
"A"~e3 f "D"eBBB|"G"gBBB defg|"G"afbf afeg|"A"fedB ADFA:|

%-------------------- TUNE SEPARATOR --------------------%

